!!!COM:	Anonymous
!!!OTL:	L'autrier / H&eacute; amy / Adieu l'abesse
!!!AGN:	Song; Chanson
!!!SCT:	Ano3024
!!!SCA:	Ano3024
!!!SMS:	Dijon Chansonnier
!!!folio:	
!!!voices:	4
**kern	**kern	**kern	**kern
*staff4	*staff3	*staff2	*staff1
*Ivox	*Ivox	*Ivox	*Ivox
*I"Contratenor	*I"Tenor2	*I"Tenor1	*I"Superius
*I'Ct	*I'T2	*I'T1	*I'S
*clefF4	*clefGv2	*clefGv2	*clefG2
*k[]	*k[]	*k[]	*k[]
*M2/1	*M2/1	*M2/1	*M2/1
*met(C|)	*met(C|)	*met(C|)	*met(C|)
=1-	=1-	=1-	=1-
!LO:TX:i:Y=24:t=Lautrier	!	!LO:TX:Y=24:t=H&eacute; amy...	!LO:TX:Y=24:t=L'autrier...
0D	0r	1A	0a
.	.	1A	.
=2	=2	=2	=2
1G	0r	1B	1g
1F	.	1c	1a
=3	=3	=3	=3
!	!LO:TX:Y=32:t=Adieu l'abesse...	!	!
0A	0D	0d	1f
.	.	.	1d
=4	=4	=4	=4
1r	1D	0A	1.f
1A	1D	.	.
.	.	.	4e
.	.	.	4d
=5	=5	=5	=5
0AA	[0A	0r	1c
.	.	.	[1cc
=6	=6	=6	=6
[0D	1A]	0r	1cc]
.	1B	.	1b
=7	=7	=7	=7
0D]	1.d	0r	0a
.	2c	.	.
=8	=8	=8	=8
1G	1B	1.d	2g
.	.	.	1g
1D	1A	.	.
.	.	2c	2f
=9	=9	=9	=9
[0E	0G	1B	1g
.	.	1G	1e
=10	=10	=10	=10
0E]	0r	0B	1.g
.	.	.	2f
=11	=11	=11	=11
0AA	0c	0A	0a
=12	=12	=12	=12
1E	1B	0r	0r
1F	1A	.	.
=13	=13	=13	=13
1E	1G	0r	0r
[1D	[1B	.	.
=14	=14	=14	=14
1D]	2B]	0r	0r
.	2A	.	.
1C	[1A	.	.
=15	=15	=15	=15
0BB	1A]	0r	1r
.	1G#i	.	1d
=16	=16	=16	=16
0AA	0A	0r	[0c
=17	=17	=17	=17
0F	0r	1A	1c]
.	.	1A	1d
=18	=18	=18	=18
0E	0r	1B	0e
.	.	1c	.
=19	=19	=19	=19
0A	0D	0d	[0f
=20	=20	=20	=20
0r	1D	0A	1f]
.	1D	.	1d
=21	=21	=21	=21
0D	[0A	0r	1.f
.	.	.	2e
=22	=22	=22	=22
1F	1A]	0r	2c
.	.	.	2d
1E	1B	.	1e
=23	=23	=23	=23
1D	1.d	0r	1f
[1G	.	.	1d
.	2c	.	.
=24	=24	=24	=24
2G]	1B	1.d	1g
2F	.	.	.
1D	1A	.	1f
.	.	2c	.
=25	=25	=25	=25
0E	0G	1B	1g
.	.	1G	1e
=26	=26	=26	=26
0G	0r	0B	0d
=27	=27	=27	=27
0F	0c	0A	1r
.	.	.	1a
=28	=28	=28	=28
1G	1B	0r	2g
.	.	.	2e
1D	1A	.	1f
=29	=29	=29	=29
1E	1G	0r	1g
[1G	[1B	.	1d
=30	=30	=30	=30
1G]	2B]	0r	1e
.	2A	.	.
1F	[1A	.	[1d
=31	=31	=31	=31
0E	1A]	0r	1d]
.	1G	.	1c#i
=32	=32	=32	=32
0D	0A	0r	1d
.	.	.	1f
=33	=33	=33	=33
0AA	0r	1A	1e
.	.	1A	[1c
=34	=34	=34	=34
1A	0r	1c	1c]
1G	.	1B	1d
=35	=35	=35	=35
0c	0r	0A	1e
.	.	.	1f
=36	=36	=36	=36
0B	0r	0E	1g
.	.	.	1e
=37	=37	=37	=37
1E	0r	1G	1r
1C	.	1G	1e
=38	=38	=38	=38
0D	0A	1F	2d
.	.	.	1f
.	.	1D	.
.	.	.	4e
.	.	.	4d
=39	=39	=39	=39
0AA	1A	0F	[0c
.	1A	.	.
=40	=40	=40	=40
0C	0G	0E	1c]
.	.	.	1e
=41	=41	=41	=41
0BB	1G	0r	0d
.	1G	.	.
=42	=42	=42	=42
[0AA	1.A	0r	[0c
.	2A	.	.
=43	=43	=43	=43
0AA_	1A	0r	0c]
.	1A	.	.
=44	=44	=44	=44
0AA]	0E	1A	1r
.	.	1A	[1c
=45	=45	=45	=45
1AA	0r	1c	1c]
1GG	.	1B	1d
=46	=46	=46	=46
1D	0r	0A	1f
[1AA	.	.	1e
=47	=47	=47	=47
2AA]	0r	0E	0c
2BB	.	.	.
[1C	.	.	.
=48	=48	=48	=48
2C]	0r	1G	1c
2BB	.	.	.
1GG	.	1G	1B
=49	=49	=49	=49
0D	0r	1F	1.A
.	.	1D	.
.	.	.	[2d
=50	=50	=50	=50
0AA	0A	0E	2d]
.	.	.	2c#i
.	.	.	2c#i
.	.	.	2B
=51	=51	=51	=51
0D	1A	0D	0d
.	1A	.	.
=52	=52	=52	=52
0r	0D	1A	1r
.	.	1A	[1d
=53	=53	=53	=53
0r	1r	1B	2d]
.	.	.	2e
.	1A	1c	1f
=54	=54	=54	=54
0GG	1.G	1d	0g
.	.	1B	.
.	2F	.	.
=55	=55	=55	=55
1AA	1E	0A	1c
1D	1D	.	1d
=56	=56	=56	=56
1AA	0C	0r	0e
1r	.	.	.
=57	=57	=57	=57
1D	1r	0r	1A
2F	1D	.	1r
2G	.	.	.
=58	=58	=58	=58
1A	0D	0r	1f
1B-i	.	.	1d
=59	=59	=59	=59
0A	0D	1.d	1.f
.	.	2c	2g
=60	=60	=60	=60
0G	0E	1B	2e
.	.	.	1g
.	.	1G	.
.	.	.	2f
=61	=61	=61	=61
1r	0G	0B	1d
1B	.	.	1g
=62	=62	=62	=62
1c	1A	0A	2f
.	.	.	1e
1A	1c	.	.
.	.	.	2a
=63	=63	=63	=63
0E	0B	0r	2a
.	.	.	2g
.	.	.	2a
.	.	.	2f
=64	=64	=64	=64
1F	0A	0r	1a
[1D	.	.	[1f
=65	=65	=65	=65
0D]	0r	1A	1f]
.	.	1A	1a
=66	=66	=66	=66
0E	0r	1B	0g
.	.	1c	.
=67	=67	=67	=67
[0D	0r	0d	1f
.	.	.	1d
=68	=68	=68	=68
0D]	0r	0A	1.f
.	.	.	2e
=69	=69	=69	=69
0F	0A	0r	0c
=70	=70	=70	=70
0D	1A	1.d	0f
.	1A	.	.
.	.	2c	.
=71	=71	=71	=71
[0E	[0G	1B	1e
.	.	1G	[1g
=72	=72	=72	=72
0E]	1G]	0B	2g]
.	.	.	2f
.	1G	.	2e
.	.	.	2d
=73	=73	=73	=73
0AA	1A	0A	1c
.	1A	.	1e
=74	=74	=74	=74
1D	1F	0r	2f
.	.	.	1d
1D	1F	.	.
.	.	.	2c
=75	=75	=75	=75
0AA	0E	0r	0e
=76	=76	=76	=76
0D	1r	1A	0f
.	1D	1A	.
=77	=77	=77	=77
0r	1C	1c	1e
.	1D	1B	1d
=78	=78	=78	=78
0AA	1E	0A	1.c
.	1F	.	.
.	.	.	4B
.	.	.	4A
=79	=79	=79	=79
0r	1.G	0E	1B
.	.	.	1e
.	2F	.	.
=80	=80	=80	=80
0C	1E	1G	2c
.	.	.	2d
.	1E	1G	1e
=81	=81	=81	=81
1D	0D	1F	1A
1BB	.	1D	1d
=82	=82	=82	=82
0AA	1r	0E	2c#i
.	.	.	1c#i
.	1A	.	.
.	.	.	2B
=83	=83	=83	=83
*^	*	*	*
0Dl	0Al	0Al	0Dl	0dl
*v	*v	*	*	*
==	==	==	==
*-	*-	*-	*-
!!!RDF**kern: l=long note in original notation
!!!RDF**kern: i=editorial accidental
!!!ENC:	Chris Gage 03-05-2015
!!!END:	2015/03/14/
!!!EED:	Jesse Rodin
!!!EEV:	2016/02/23/
!!!ONB:	Translated from MusicXML and edited on 2016/02/23/ by Craig Sapp
!!muse2ps: C^@{COM}\n@{SMS} @{folio}^v85,85,85,150Q16
